X:44
T:Congress. RHu.044
S:R.Hughes MS,1823,Whitchurch,Shrops.
A:Whitchurch, Shropshire
Z:Neil Brookes 2006
M:2/4
L:1/8
Q:1/4=100
R:Galop
K:C
c/d/|eee c/e/|ggg e/g/|ffee|dd c/B/A/G/|!
eee c/e/|ggg e/g/|ffeg|d/c/d/e/c2::!
c’2bb|aag2|ff ee|dd c/B/A/G/|!
c’2bb|aag2|ffeg|d/c/d/e/ c2:|

